X:293
T:Statia Donnelly
R:jig
H:See also slow air#19 "An P\'aist\'in Fionn"
Z:id:hn-jig-293
M:6/8
K:Dmix
FGA cAA|BGB cAG|FGA cAG|Ad^c dAG|
FGA cAA|dff g2e|dcA GEA|1 ~D3 D2E:|2 ~D3 DFA||
|:ded cAA|~f3 g2e|ded cAB|cBc ABc|
ded cAA|dff g2e|dcA GEA|1 ~D3 DFA:|2 ~D3 D2E||

